X: 10701
T: LISTEN TO THE VOICE OF LOVE
C: Hook
Q: "Slowly."
%R: air, march
B: W. Hamilton "Universal Tune-Book" Vol. 1 Glasgow 1844 p.70 #1
S: http://imslp.org/wiki/Hamilton's_Universal_Tune-Book_(Various)
Z: 2016 John Chambers <jc:trillian.mit.edu>
M: 2/4
L: 1/16
K: Eb
% - - - - - - - - - - - - - - - - - - - - - - - - -
B2 |\
(BG3)(AF3) | E6 e2 | (e2d2)(c2B2) | e6 f2 |\
(ge3)(ec3) | (fd3)(dB3) | (Tc3B)(c3d) | B6 B2 |\
(B2e2)(g2e2) | (d/e/f3) z2B2 | (B2e2)(g2e2) | (d/e/f3) z2B2 |
e6 d2 | (Td2c2)(Tc2B2) | (TB2A2)(TA2G2) | HG2HF2 z2B2 |\
(BG3)(AF3) | E6 e2 | (Te2d2)(c2B2) | Ha6 f2 |\
(ge3)(ec3) | (Bcde de)(EA) | G4 F4 | E4 z2 |]
% - - - - - - - - - - - - - - - - - - - - - - - - -

%%sep 1 1 500
%%sep 1 1 500

